Gruvbox-Material-Icons/actions/symbolic/list-drag-handle-symbolic.svg

<svg width="16" height="16" version="1.1" xmlns="http://www.w3.org/2000/svg">
  <defs>
    <style id="current-color-scheme" type="text/css">.ColorScheme-Text { color:#ebdbb2; } .ColorScheme-Highlight { color:#458588; }</style>
  </defs>
  <path class="ColorScheme-Text" d="m4 1v3h3v-3zm5 0v3h3v-3zm-5 5v3h3v-3zm5 0v3h3v-3zm-5 5v3h3v-3zm5 0v3h3v-3z" fill="currentColor"/>
</svg>

<svg width="16" height="16" version="1.1" xmlns="http://www.w3.org/2000/svg">
  <defs>
    <style type="text/css">.ColorScheme-Text { color:#ebdbb2; } .ColorScheme-Highlight { color:#458588; }</style>
  </defs>
 <path class="ColorScheme-Text" fill="currentColor" d="M 4,1 V 4 H 7 V 1 Z m 5,0 v 3 h 3 V 1 Z M 4,6 V 9 H 7 V 6 Z m 5,0 v 3 h 3 V 6 Z m -5,5 v 3 h 3 v -3 z m 5,0 v 3 h 3 v -3 z"/>
</svg>
